X: 1
T: da Scallowa Lasses
O: trad Shetland
R: reel
Z: 2013 John Chambers <jc:trillian.mit.edu>
M: C|
L: 1/8
K: Ador
    z2 | a2a2 efed |^cdef g2fg | eaaa efed | cABG A2 :|
|: cAc | BEEE c2cA | BcdB edcB | A2a2 efed | cABG A2 :|
